!!!COM: Scriabin, Alexander
!!!OTL@@FR: Mouvement no 4
!!!OTL@@EN: Movement No. 4
!!!OPR@@FR: Sonate no 1
!!!OPR@@EN: Sonata No. 1
!!!OPS: 6
!!!ONM: 4
!!!ODT: 1893
!!!AGN: Sonata movement
**kern	**kern	**dynam
*staff2	*staff1	*staff1/2
*Ipiano	*Ipiano	*
*clefF4	*clefG2	*
*k[b-e-a-d-]	*k[b-e-a-d-]	*
*f:	*f:	*
*M4/4	*M4/4	*
*met(c)	*met(c)	*
!! attacca from Movement No. 3
=87	=87	=87
4FFF 4FF	2r	.
4C	.	.
4FFF 4FF	4r	.
*	*^	*
*	*clefF4	*clefF4	*
4C	4F	8.FL	.
.	.	16GJk	.
=88	=88	=88	=88
4FFF 4FF	[4C [4F	2G	.
4C 4c	12CL] 12F]	.	.
.	12C 12F	.	.
.	12CJ 12F	.	.
4FFF 4FF	4C 4F	8A-L	.
.	.	[8gJ	.
4C	4A-	12gL]	.
.	.	12.f	.
.	.	24e-Jk	.
=89	=89	=89	=89
*^	*	*^	*
4FFF	8r	4rFF	8rC	4e-	.
.	[8FF	.	[8A-	.	.
4r	12FFL]	4D-\	12A-L]	2d-	.
.	12.GG	.	12.G	.	.
.	24AA-Jk	.	24FJk	.	.
*	*	*v	*v	*	*
4FFF	4AA-	4D- 4F	.	.
4r	8.AA-L	4D- 4F	4c	.
.	16AA-Jk	.	.	.
*	*	*v	*v	*
!!LO:LB:g=original
=90	=90	=90	=90
4FFF	8AA-L	4r	.
.	8GGJ	.	.
*	*	*^	*
4r	8AA-L	4D-	12cL	.
.	.	.	12F	.
.	8GGJ	.	.	.
.	.	.	12GJ	.
4FFF	8AA-L	4D- 4F	4.c	.
.	8GGJ	.	.	.
4r	8AA-L	4F	.	.
.	8GGJ	.	8Bn	.
*v	*v	*	*	*
=91	=91	=91	=91
4FFF 4FF	2F 2A-	8.fL	.
.	.	16cJk	.
4C	.	4c	.
4FFF 4FF	2BBn	4r	.
4D-	.	8.FL	.
.	.	16GJk	.
=92	=92	=92	=92
4FFF 4FF	[4C [4F	2G	.
4C 4c	12CL] 12F]	.	.
.	12C 12F	.	.
.	12CJ 12F	.	.
4FFF 4FF	4C 4F	8A-L	.
.	.	[8gJ	.
4C	4A-	12gL]	.
.	.	12.f	.
.	.	24e-Jk	.
!!LO:LB:g=original
=93	=93	=93	=93
*^	*	*^	*
4FFF 4FF	8r	4rFF	8A-	4e-	.
.	[8FF	.	[8A-	.	.
4r	12FFL]	4D-\	12A-L]	2d-	.
.	12.GG	.	12.G	.	.
.	24AA-Jk	.	24FJk	.	.
*	*	*v	*v	*	*
4FFF	4AA-	4D- 4F	.	.
4r	8.AA-L	4D- 4F	4c	.
.	16AA-Jk	.	.	.
*	*	*v	*v	*
=94	=94	=94	=94
4FFF	8AA-L	4r	.
.	8GGJ	.	.
*	*	*^	*
4r	8AA-L	4D-	12cL	.
.	.	.	12F	.
.	8GGJ	.	.	.
.	.	.	12GJ	.
4FFF	8AA-L	4D- 4F	4.c	.
.	8GGJ	.	.	.
4r	8AA-L	4F	.	.
.	8GGJ	.	8Bn	.
*v	*v	*	*	*
=95	=95	=95	=95
4FFF 4FF	2E- 2A-	8.e-L	.
.	.	16cJk	.
4C	.	4c	.
*	*v	*v	*
4FFF 4FF	4r	.
*	*^	*
4C	4E-	8.A-L	.
.	.	16A-Jk	.
!!LO:LB:g=original
=96	=96	=96	=96
4FFF 4FF	4E-	12A-L	.
.	.	12B-	.
.	.	12BnJ	.
4C	4E- 4A-	12cL	.
.	.	12d-	.
.	.	12dnJ	.
4FFF 4FF	4E- 4c	4e-	.
4G-X	4E- 4B-X	8.e-L	.
.	.	16e-Jk	.
=97	=97	=97	=97
4FFF 4FF	4E- [4An	12e-L	.
.	.	12dn	.
.	.	12e-J	.
4F	12AL]	2d-X 2f	.
.	12A	.	.
.	12AJ	.	.
4FFF 4FF	4A	.	.
*	*clefG2	*clefG2	*
4E-	4F	8.B-L	.
.	.	16B-Jk	.
=98	=98	=98	=98
4FFF 4FF	4F	12B-L	.
.	.	12c	.
.	.	[12d-J	.
4D-	4F 4B-	12d-L]	.
.	.	12e-	.
.	.	[12fJ	.
4FFF 4FF	4F 4B- 4d-	8fL]	.
.	.	[8b-J	.
4F 4f	4d-	12b-L]	.
.	.	12.an	.
.	.	24a-XJk	.
!!LO:LB:g=original
=99	=99	=99	=99
4FFF 4FF	4d-	4a-	.
*	*	*^	*
4C 4c	12e-\L	4e-/	2a-	.
.	12A-	.	.	.
.	12A-J	.	.	.
*	*v	*v	*	*
4FF 4C 4B-\	4A- 4en	.	.
4C 4B-	4c	8.FL 8.f	.
.	.	16GJk 16g	.
=100	=100	=100	=100
4FFF 4FF	[4c [4f	2G 2g	.
[8qC	.	.	.
4C] 4cc	12cL] 12f]	.	.
.	12c 12f	.	.
.	12cJ 12f	.	.
8FFFL 8FF	4c 4f	8A-L 8a-	.
8CJ 8c	.	[8gJ [8gg	.
4A- 4c 4a-	4cc	12gL] 12gg]	.
.	.	12.f 12.ff	.
.	.	24e-XJk 24ee-	.
*	*v	*v	*
=101	=101	=101
*^	*	*
4FFF 4FF	8r	4e- 4a- 4ee-	.
.	[8FF [8F	.	.
4r	12FFL] 12F]	2d- 2a- 2dd-	.
.	12.GG 12.G	.	.
.	24AA-Jk 24A-	.	.
4ryy	4AA- 4A-	.	.
4D-	8.AA-L 8.A-	4c 4f 4cc	.
.	16AA-Jk 16A-	.	.
!!LO:LB:g=original
=102	=102	=102	=102
4FFF 4FF	8AA-L 8A-	4r	.
.	8GGJ 8G	.	.
4D-	8AA-L 8A-	2c 2f 2cc	.
.	8GGJ 8G	.	.
4FFF 4FF	8AA-L 8A-	.	.
.	8GGJ 8G	.	.
4D-	8AA-L 8A-	4B- 4en 4b-	.
.	8GGJ 8G	.	.
=103	=103	=103	=103
4FFF 4FF	8AA-L 8A-	4r	.
.	8FFJ 8F	.	.
4r	4FF 4F	4A- 4f 4a-	.
*v	*v	*	*
8AAA-L	4r	.
8FFFJ	.	.
4FFF	4r	.
*	*clefF4	*
=104	=104	=104
*^	*	*
4FFF	8AA-L	4r	.
.	8GGJ	.	.
4r	8AA-L	2D- 2F 2c	.
.	8GGJ	.	.
4FFF	8AA-L	.	.
.	8GGJ	.	.
4r	8AA-L	4D- 4En 4B-	.
.	8GGJ	.	.
*v	*v	*	*
=105	=105	=105
8AA-L	4r	.
8FFJ	.	.
4FF	4C 4F 4A-	.
8AAA-L	2r	.
8FFFJ	.	.
4FFF	.	.
*	*clefG2	*
!!LO:LB:g=original
=106	=106	=106
*M2/2	*M2/2	*
*met(c|)	*met(c|)	*
*cue	*cue	*
2D- 2A-	2d- 2f	.
2D- 2A-	2d- 2f	.
=107	=107	=107
2D- 2A- 2d-	2c 2f 2a-	.
*^	*	*
*cue	*	*	*
2D- 2d-	2A-	2c 2f 2a-	.
=108	=108	=108	=108
2D- 2d-	2A-	2B- 2en 2b-	.
2D- 2d-	2G	2B- 2e 2b-	.
=109	=109	=109	=109
2D- 2d-	2G	2en 2b- 2dd-	.
2D- 2d-	2G-X	2e 2b- 2dd-	.
*v	*v	*	*
=110	=110	=110
2D- 2F 2d-	2f 2b- 2ff	.
2D- 2F 2d-	2f 2b- 2ff	.
=111	=111	=111
2C 2F 2c	2a- 2ee- 2aa-	.
2C 2F 2c	2a- 2ee- 2aa-	.
=112	=112	=112
2BB- 2F 2B-	2dd- 2aa- 2ddd-	.
2BB- 2F 2B-	2dd- 2aa- 2ddd-	.
=113	=113	=113
*^	*	*
*cue	*	*	*
[8qAAA- [8qAA-\	.	.	.
1AAA-] 1AA-]	2F 2A- 2c 2f	2ff 2ccc 2fff	.
.	2F 2A- 2c 2f	2ff 2ccc 2fff	.
*v	*v	*	*
!!LO:LB:g=original
=114	=114	=114
2E- 2B-	2e- 2g-X	.
2E- 2B-	2e- 2g-	.
=115	=115	=115
2E- 2B- 2e-	2d- 2g-X 2b-	.
2E- 2B- 2e-	2d- 2g- 2b-	.
=116	=116	=116
2E- 2A- 2e-	2c-X 2g-X 2cc-X	.
2E- 2A- 2e-	2c- 2g- 2cc-	.
=117	=117	=117
2E- 2An 2e-	2g-X 2cc-X 2ee-	.
2E- 2A 2e-	2g- 2cc- 2ee-	.
=118	=118	=118
2E- 2B- 2e-	2g-X 2b- 2ee- 2gg-X	.
2E- 2B- 2e-	2g- 2b- 2ee- 2gg-	.
=119	=119	=119
2En 2B- 2d-	2g-X 2b- 2dd- 2gg-X	.
2E 2B- 2d-	2g- 2b- 2dd- 2gg-	.
=120	=120	=120
2BB- 2F 2d-	2f 2b- 2ff	.
2BB- 2F 2d-	2f 2b- 2ff	.
=121	=121	=121
2BB- 2F 2d-	2f 2b- 2dd-	.
2BB- 2F 2d-	2f 2b- 2dd-	.
!!LO:LB:g=original
=122	=122	=122
1r	1r	.
=123	=123	=123
2C-X 2F	2An 2e- 2an	.
2C- 2F	2A 2e- 2a	.
=124	=124	=124
2EE- 2BB- 2G-X	2B- 2e- 2b-	.
2EE- 2BB- 2G-	2B- 2e- 2b-	.
=125	=125	=125
2EE- 2BB- 2G-X	2B- 2e- 2g-X	.
2EE- 2BB- 2G-	2B- 2e- 2g-	.
=126	=126	=126
*M4/4	*M4/4	*
*met(c)	*met(c)	*
*Xcue	*Xcue	*
2r	4r	.
.	[4b--/	.
*	*^	*
2E-	2B-- 2d-	6b--]	.
.	.	6a-	.
.	.	6g-X	.
=127	=127	=127	=127
*^	*	*	*
*Xcue	*	*	*	*
2.BB--	1G-X	1c	4f	.
.	.	.	2dn	.
4AA-	.	.	4e-	.
*v	*v	*	*	*
*	*v	*v	*
=128	=128	=128
*M2/2	*M2/2	*
*met(c|)	*met(c|)	*
*cue	*cue	*
2D- 2A-	2d-X 2f	.
2D- 2A-	2d- 2f	.
!!LO:LB:g=original
=129	=129	=129
2D- 2A- 2d-	2c 2f 2a-	.
*^	*	*
*cue	*	*	*
2D- 2d-	2A-	2c 2f 2a-	.
=130	=130	=130	=130
2D- 2d-	2A-	2B- 2en 2b-	.
2D- 2d-	2G	2B- 2e 2b-	.
=131	=131	=131	=131
2D- 2d-	2G	2en 2b- 2dd-	.
2D- 2d-	2G-X	2e 2b- 2dd-	.
=132	=132	=132	=132
2D- 2d-	2F	2f 2b- 2ff	.
2D- 2d-	2F	2f 2b- 2ff	.
=133	=133	=133	=133
2D- 2d-	2Gn	2f 2bn 2ff	.
2D- 2d-	2G	2f 2b 2ff	.
=134	=134	=134	=134
[8qC\	.	.	.
2C] 2Bn 2d- 2f	2A-	2a- 2dd- 2ff 2aa-	.
2B 2d- 2f	2A-	2a- 2dd- 2ff 2aa-	.
=135	=135	=135	=135
1C	4G	2.en 2.b-X 2.een	.
.	2d-	.	.
.	4c	4r	.
*Xcue	*Xcue	*Xcue	*
*v	*v	*	*
*	*clefF4	*
!!LO:LB:g=original
=136	=136	=136
*M4/4	*M4/4	*
*met(c)	*met(c)	*
4FFF 4FF	2r	.
4C	.	.
4FFF 4FF	4r	.
*	*^	*
4C	4F	8.FL	.
.	.	16GJk	.
=137	=137	=137	=137
4FFF 4FF	[4C [4F	2G	.
4C 4c	12CL] 12F]	.	.
.	12C 12F	.	.
.	12CJ 12F	.	.
4FFF 4FF	4C 4F	8A-L	.
.	.	[8gJ	.
4C	4A-	12gL]	.
.	.	12.f	.
.	.	24e-Jk	.
=138	=138	=138	=138
*^	*	*^	*
4FFF 4FF	8r	4rFF	8A-	4e-	.
.	[8FF	.	[8A-	.	.
4r	12FFL]	4D-\	12A-L]	2d-	.
.	12.GG	.	12.G	.	.
.	24AA-Jk	.	24FJk	.	.
*	*	*v	*v	*	*
4FFF	4AA-	4D- 4F	.	.
4r	8.AA-L	4D- 4F	4c	.
.	16AA-Jk	.	.	.
*	*	*v	*v	*
=139	=139	=139	=139
4FFF	8AA-L	4r	.
.	8GGJ	.	.
*	*	*^	*
4r	8AA-L	4D-	12cL	.
.	.	.	12F	.
.	8GGJ	.	.	.
.	.	.	12GJ	.
4FFF	8AA-L	4D- 4F	4.c	.
.	8GGJ	.	.	.
4r	8AA-L	4F	.	.
.	8GGJ	.	8Bn	.
*v	*v	*	*	*
!!LO:LB:g=original
=140	=140	=140	=140
4FFF 4FF	2F 2A-	8.fL	.
.	.	16cJk	.
4C	.	4c	.
4FFF 4FF	2BBn	4r	.
4D-	.	8.FL	.
.	.	16GJk	.
=141	=141	=141	=141
4FFF 4FF	[4C [4F	2G	.
4C 4c	12CL] 12F]	.	.
.	12C 12F	.	.
.	12CJ 12F	.	.
4FFF 4FF	4C 4F	8A-L	.
.	.	[8gJ	.
4C	4A-	12gL]	.
.	.	12.f	.
.	.	24e-Jk	.
=142	=142	=142	=142
*^	*	*^	*
4FFF 4FF	8r	4rFF	8A-	4e-	.
.	[8FF	.	[8A-	.	.
4r	12FFL]	4D-\	12A-L]	2d-	.
.	12.GG	.	12.G	.	.
.	24AA-Jk	.	24FJk	.	.
*	*	*v	*v	*	*
4FFF	4AA-	4D- 4F	.	.
4r	8.AA-L	4D- 4F	4c	.
.	16AA-Jk	.	.	.
*	*	*v	*v	*
=143	=143	=143	=143
4FFF	8AA-L	4r	.
.	8GGJ	.	.
*	*	*^	*
4r	8AA-L	4D-	12cL	.
.	.	.	12F	.
.	8GGJ	.	.	.
.	.	.	12GJ	.
4FFF	8AA-L	4D- 4F	4.c	.
.	8GGJ	.	.	.
4r	8AA-L	4F	.	.
.	8GGJ	.	8Bn	.
*v	*v	*	*	*
!!LO:LB:g=original
=144	=144	=144	=144
4FFF 4FF	2E- 2A-	8.e-L	.
.	.	16cJk	.
4C	.	4c	.
*	*v	*v	*
4FFF 4FF	4r	.
*	*^	*
4C	4E-	8.A-L	.
.	.	16A-Jk	.
=145	=145	=145	=145
4FFF 4FF	4E-	12A-L	.
.	.	12B-	.
.	.	12BnJ	.
4C	4E- 4A-	12cL	.
.	.	12d-	.
.	.	12dnJ	.
4FFF 4FF	4E- 4c	4e-	.
4G-X	4E- 4B-X	8.e-L	.
.	.	16e-Jk	.
=146	=146	=146	=146
4FFF 4FF	4E- [4An	12e-L	.
.	.	12dn	.
.	.	12e-J	.
4F	12AL]	2d-X 2f	.
.	12A	.	.
.	12AJ	.	.
4FFF 4FF	4A	.	.
*	*clefG2	*clefG2	*
4E-	4F	8.B-L	.
.	.	16B-Jk	.
!!LO:LB:g=original
=147	=147	=147	=147
4FFF 4FF	4F	12B-L	.
.	.	12c	.
.	.	[12d-J	.
4D-	4F 4B-	12d-L]	.
.	.	12e-	.
.	.	[12fJ	.
4FFF 4FF	4F 4B- 4d-	8fL]	.
.	.	[8b-J	.
4F 4f	4d-	12b-L]	.
.	.	12.an	.
.	.	24a-XJk	.
=148	=148	=148	=148
4FFF 4FF	4d-	4a-	.
*	*	*^	*
4C 4c	12e-L	4e-	2a-	.
.	12A-	.	.	.
.	12A-J	.	.	.
*	*v	*v	*	*
4FF 4C 4B-\	4A- 4en	.	.
4C 4B-	4c	8.FL 8.f	.
.	.	16GJk 16g	.
=149	=149	=149	=149
4FFF 4FF	[4c [4f	2G 2g	.
[8qC	.	.	.
4C] 4cc	12cL] 12f]	.	.
.	12c 12f	.	.
.	12cJ 12f	.	.
8FFFL 8FF	4c 4f	8A-L 8a-	.
8CJ 8c	.	[8gJ [8gg	.
4A- 4c 4a-	4cc	12gL] 12gg]	.
.	.	12.f 12.ff	.
.	.	24e-XJk 24ee-	.
*	*v	*v	*
!!LO:LB:g=original
=150	=150	=150
*^	*	*
4FFF 4FF	8r	4e- 4a- 4ee-	.
.	[8FF [8F	.	.
4r	12FFL] 12F]	2d- 2a- 2dd-	.
.	12.GG 12.G	.	.
.	24AA-Jk 24A-	.	.
4FFF 4FF	4AA- 4A-	.	.
4D-	8.AA-L 8.A-	4c 4f 4cc	.
.	16AA-Jk 16A-	.	.
=151	=151	=151	=151
4FFF 4FF	8AA-L 8A-	4r	.
.	8GGJ 8G	.	.
4D-	8AA-L 8A-	2c 2f 2cc	.
.	8GGJ 8G	.	.
4FFF 4FF	8AA-L 8A-	.	.
.	8GGJ 8G	.	.
4D-	8AA-L 8A-	4B- 4en 4b-	.
.	8GGJ 8G	.	.
=152	=152	=152	=152
4FFF 4FF	8AA-L 8A-	4r	.
.	8FFJ 8F	.	.
4r	4FF 4F	4A- 4f 4a-	.
*v	*v	*	*
8AA-L	4r	.
8FFJ	.	.
4FF	4r	.
*	*clefF4	*
=153	=153	=153
*^	*	*
4FFF	8AA-L	4r	.
.	8GGJ	.	.
4r	8AA-L	2D- 2F 2c	.
.	8GGJ	.	.
4FFF	8AA-L	.	.
.	8GGJ	.	.
4r	8AA-L	4D- 4En 4B-	.
.	8GGJ	.	.
!!LO:LB:g=original
=154	=154	=154	=154
4FFF	8AA-L	4r	.
.	8FFJ	.	.
4r	4FF	4C 4F 4A-	.
*v	*v	*	*
8AAA-L	2r	.
8FFFJ	.	.
4FFF	.	.
=155	=155	=155
*^	*	*
4FFF	8AAA-L	4r	.
.	8GGGJ	.	.
4r	8AAA-L	2DD- 2FF 2C	.
.	8GGGJ	.	.
4FFF	8AAA-L	.	.
.	8GGGJ	.	.
4r	8AAA-L	4DD- 4FF 4BBn	.
.	8GGGJ	.	.
=156	=156	=156	=156
4FFF	8AAA-L	4r	.
.	8GGGJ	.	.
4r	8AAA-L	2DD- 2FF 2C	.
.	8GGGJ	.	.
4FFF	8AAA-L	.	.
.	8GGGJ	.	.
4r	8AAA-L	4DD- 4FF 4BBn	.
.	8GGGJ	.	.
*v	*v	*	*
*	*clefG2	*
=157	=157	=157
8AA-L 8C 8A-	8a-L 8cc 8aa-	.
8FFJ 8C 8F	8fJ 8cc 8ff	.
2.FF 2.C 2.F	2.f 2.cc 2.ff	.
==	==	==
*-	*-	*-
!!!system-decoration: {(*)}
!!!filter: flipper -a
!!!ENC: Bryan Jacob Bell
!!!END: November 2021 to April 2022
!!!PED: Günter Philipp
!!!PTL: Ausgewählte Klavierwerke (Edition Peters)
